packages/ffe-icons/icons/filled/lg/polyline.svg

<svg xmlns="http://www.w3.org/2000/svg" height="40" viewBox="0 -960 960 960" width="40"><path d="M619.744-141.025v-42.822L317.436-334.873H181.025q-21.089 0-36.057-14.967-14.967-14.968-14.967-36.057v-108.206q0-21.089 14.967-36.057 14.968-14.967 36.057-14.967h117.078l121.641-137.668v-136.18q0-21.089 14.968-36.057 14.967-14.967 36.057-14.967h108.206q21.089 0 36.057 14.967 14.967 14.968 14.967 36.057v108.206q0 21.09-14.967 36.057-14.968 14.968-36.057 14.968H466.359L340.256-516.872v137.488l280.257 139.488v-13.847q1.282-19.564 15.808-33.038 14.525-13.475 34.448-13.475h108.206q21.089 0 36.057 14.968 14.967 14.967 14.967 36.057v108.206q0 21.089-14.967 36.057-14.968 14.967-36.057 14.967H670.769q-21.09 0-36.057-14.967-14.968-14.968-14.968-36.057Z"/></svg>

<svg xmlns="http://www.w3.org/2000/svg" viewBox="0 -960 960 960" width="32" height="32"><path d="M619.74-141.02v-42.83l-302.3-151.02H181.02q-21.08 0-36.05-14.97Q130-364.81 130-385.9v-108.2q0-21.09 14.97-36.06 14.97-14.97 36.05-14.97H298.1l121.64-137.66v-136.19q0-21.08 14.97-36.05Q449.68-870 470.77-870h108.21q21.08 0 36.05 14.97Q630-840.06 630-818.98v108.21q0 21.09-14.97 36.06-14.97 14.97-36.05 14.97H466.36l-126.1 142.87v137.49L620.51-239.9v-13.84q1.29-19.57 15.81-33.04 14.53-13.48 34.45-13.48h108.21q21.08 0 36.05 14.97Q830-270.32 830-249.23v108.21q0 21.08-14.97 36.05Q800.06-90 778.98-90H670.77q-21.09 0-36.06-14.97-14.97-14.97-14.97-36.05Z"/></svg>
